X: 1
T: Door County #2
C: Larry Unger
%D:
R: reel
S: Fiddle Hell Online 2021-05-31
Z: 2021 John Chambers <jc:trillian.mit.edu>
M: C|
L: 1/8
K: F
|: "F"(DF-F)(uE F2)FF | GAA(A GF)FF | DFFE F3(F | "F"GF)FG "Dm"A3A || DuF-FF- F3(F |
G2)GA G(FDF) | "Dm"GGG(A GF)DC | "Bb"vD2-DD- D2DD :: ("F"vAc-)cuc- c2cc | d3(uc AG)FF |
"Dm"Add(c d2)dc | dcAA c3c || ("F"vAc-)cc- c2cc | d3(uc AG)FF | "Dm"G2(GA) GFDC | "Bb"vD2-DD- D2DD :|
